X: 1
T:Graf Spee, The
R:reel
H:See also #484
D:Dervish: Playing with Fire
Z:id:hn-reel-662
M:C|
K:D
FEDE FA~A2|BAdA BAdA|FEDE FA~A2|BAdA FE~E2:|
|:fgfe dcdB|AF~F2 ABde|1 fgfe dcde|fbba faeg:|2 fbba fgfe|dBAF FE~E2||
|:faa^g ~a3e|fbba b2ba|fafe dcde|fbba faeg:|
|:fddc dBAF|ABde fedB|ABde f2ed|BAdA FE~E2:|
fade fada|gbef gbeg|fade f2ed|Bcde fe~e2|
f2bf afeg|fgfe dB~B2|ABde fded|BAdA FE~E2||
